casedrop/img/bonus/icons/calendar.svg

<svg width="45" height="45" viewBox="0 0 45 45" fill="none" xmlns="http://www.w3.org/2000/svg">
<path fill-rule="evenodd" clip-rule="evenodd" d="M11.25 3.75C11.25 2.71447 12.0895 1.875 13.125 1.875C14.1605 1.875 15 2.71447 15 3.75V5.625H30V3.75C30 2.71447 30.8394 1.875 31.875 1.875C32.9106 1.875 33.75 2.71447 33.75 3.75V5.625H35.625C38.7317 5.625 41.25 8.14341 41.25 11.25V37.5C41.25 40.6067 38.7317 43.125 35.625 43.125H9.375C6.26841 43.125 3.75 40.6067 3.75 37.5V11.25C3.75 8.14341 6.26841 5.625 9.375 5.625H11.25V3.75ZM30 9.375V11.25C30 12.2855 30.8394 13.125 31.875 13.125C32.9106 13.125 33.75 12.2855 33.75 11.25V9.375H35.625C36.6606 9.375 37.5 10.2145 37.5 11.25V16.875H7.5V11.25C7.5 10.2145 8.33948 9.375 9.375 9.375H11.25V11.25C11.25 12.2855 12.0895 13.125 13.125 13.125C14.1605 13.125 15 12.2855 15 11.25V9.375H30ZM7.5 20.625V37.5C7.5 38.5356 8.33948 39.375 9.375 39.375H35.625C36.6606 39.375 37.5 38.5356 37.5 37.5V20.625H7.5Z" fill="#2B59FF"/>
</svg>

<svg width="45" height="45" fill="none" xmlns="http://www.w3.org/2000/svg"><path fill-rule="evenodd" clip-rule="evenodd" d="M11.25 3.75a1.875 1.875 0 013.75 0v1.875h15V3.75a1.875 1.875 0 113.75 0v1.875h1.875a5.625 5.625 0 015.625 5.625V37.5a5.625 5.625 0 01-5.625 5.625H9.375A5.625 5.625 0 013.75 37.5V11.25a5.625 5.625 0 015.625-5.625h1.875V3.75zM30 9.375v1.875a1.875 1.875 0 103.75 0V9.375h1.875c1.036 0 1.875.84 1.875 1.875v5.625h-30V11.25c0-1.036.84-1.875 1.875-1.875h1.875v1.875a1.875 1.875 0 003.75 0V9.375h15zM7.5 20.625V37.5c0 1.036.84 1.875 1.875 1.875h26.25c1.036 0 1.875-.84 1.875-1.875V20.625h-30z" fill="#2B59FF"/></svg>
